assets/img/figma.svg

<svg xmlns="http://www.w3.org/2000/svg" fill="none" viewBox="312 340 400 600"><path fill="#24CB71" d="M312 840c0-55.228 44.772-100 100-100h100v100c0 55.228-44.772 100-100 100s-100-44.772-100-100Z"/><path fill="#FF7237" d="M512 340v200h100c55.228 0 100-44.772 100-100s-44.772-100-100-100H512Z"/><circle cx="611.167" cy="640" r="100" fill="#00B6FF"/><path fill="#FF3737" d="M312 440c0 55.228 44.772 100 100 100h100V340H412c-55.228 0-100 44.772-100 100Z"/><path fill="#874FFF" d="M312 640c0 55.228 44.772 100 100 100h100V540H412c-55.228 0-100 44.772-100 100Z"/></svg>

<svg viewBox="312 340 400 600" fill="none" xmlns="http://www.w3.org/2000/svg">
  <path d="M312 840C312 784.772 356.772 740 412 740H512V840C512 895.228 467.228 940 412 940C356.772 940 312 895.228 312 840Z" fill="#24CB71"/>
  <path d="M512 340V540H612C667.228 540 712 495.228 712 440C712 384.772 667.228 340 612 340H512Z" fill="#FF7237"/>
  <circle cx="611.167" cy="640" r="100" fill="#00B6FF"/>
  <path d="M312 440C312 495.228 356.772 540 412 540H512V340H412C356.772 340 312 384.772 312 440Z" fill="#FF3737"/>
  <path d="M312 640C312 695.228 356.772 740 412 740H512V540H412C356.772 540 312 584.772 312 640Z" fill="#874FFF"/>
</svg>
